X: 3
T:Munlochy Bridge
M:4/4
L:1/8
R:Strathspey
Z:Toby A. Rider <darkrider1@earthlink.NET>
K:G
g |: e>d B>A B>G G>B | d>e d>B d2 dg | e>d B>A B>G G>f |1 g>e f>d e2 eg |2 g>e f>d e2 e e/g/ ||
  |  d>e g>a b>g a>b | d<e d>B d2 de | d>e g>a b>g a>b | a>g e>d e2 eg |
  |  d>e g>a b>g a>b | d<e d>B d2 dg | e>d B>A B>G G>B | g>e f>d e2 e2 |]
